build/assets/images/proyectos/logos/fichas/logo-divina-pastora-seguros.svg

<svg width="200" height="49" viewBox="0 0 200 49" fill="none" xmlns="http://www.w3.org/2000/svg">
<g clip-path="url(#clip0)">
<path d="M125.116 39.0815C125.349 40.0117 126.512 40.9419 127.907 40.9419C129.768 40.9419 130.465 40.0117 130.465 39.0815C130.465 38.6164 130.233 38.1513 129.768 37.6861C129.302 37.4536 128.605 36.9885 127.442 36.5233C125.349 35.5931 124.419 34.8954 124.419 33.035C124.419 31.1745 125.814 30.0117 127.907 30.0117C129.535 30.0117 130.698 30.7094 131.163 32.1047L129.768 32.8024C129.302 32.1047 128.605 31.6396 127.907 31.6396C126.744 31.6396 126.047 32.1047 126.047 33.035C126.047 33.9652 126.744 34.4303 128.605 35.128C130.93 36.0582 132.093 36.9885 132.093 38.8489C132.093 40.7094 130.698 42.1047 127.907 42.1047C125.814 42.1047 123.954 41.1745 123.489 39.314L125.116 39.0815Z" fill="white"/>
<path d="M133.023 36.5233C133.023 34.6629 133.489 33.2675 134.651 32.1047C135.814 30.9419 137.209 30.4768 138.837 30.4768C140.465 30.4768 141.628 30.9419 142.558 32.1047C143.489 33.2675 143.954 34.6628 143.954 36.2908C143.954 36.5233 143.954 36.7559 143.954 36.9884H134.651C134.651 39.5466 136.279 41.1745 138.837 41.1745C140.465 41.1745 141.396 40.7094 142.326 39.5466L143.489 40.7094C142.326 42.1047 140.698 42.8024 138.837 42.8024C137.209 42.8024 135.814 42.3373 134.651 41.1745C133.489 39.7791 133.023 38.3838 133.023 36.5233ZM142.326 35.3605C142.326 34.4303 142.093 33.7326 141.396 33.0349C140.698 32.3373 139.768 32.1047 138.837 32.1047C137.675 32.1047 136.977 32.3373 136.047 33.0349C135.349 33.7326 134.884 34.4303 134.884 35.3605H142.326Z" fill="white"/>
<path d="M146.279 44.1978C147.674 45.1281 149.302 45.8258 150.93 45.8258C152.093 45.8258 153.023 45.5932 153.721 44.8955C154.419 44.1978 154.884 43.0351 154.884 41.4071V40.4769C154.186 41.6397 152.791 42.5699 150.698 42.5699C149.07 42.5699 147.674 42.1048 146.512 40.942C145.349 39.7792 144.884 38.3839 144.884 36.5234C144.884 34.8955 145.349 33.2676 146.512 32.3374C147.674 31.1746 149.07 30.7095 150.698 30.7095C152.791 30.7095 154.186 31.6397 154.884 32.8025V31.1746H156.512V40.7095C156.512 42.1048 156.279 43.5002 156.047 44.1978C155.814 45.1281 155.349 45.8258 154.651 46.5234C153.721 47.2211 152.326 47.6862 150.698 47.6862C148.605 47.6862 146.744 46.9885 145.349 45.8258L146.279 44.1978ZM153.721 39.5467C154.651 38.6164 154.884 37.6862 154.884 36.2909C154.884 35.1281 154.419 33.9653 153.721 33.0351C153.023 32.1048 151.861 31.6397 150.698 31.6397C149.535 31.6397 148.605 32.1048 147.674 32.8025C146.977 33.7327 146.512 34.663 146.512 36.0583C146.512 37.2211 146.977 38.3839 147.674 39.3141C148.372 40.2444 149.535 40.4769 150.698 40.4769C152.093 40.7095 153.023 40.4769 153.721 39.5467Z" fill="white"/>
<path d="M158.372 30.7095H160V37.6862C160 39.5467 161.163 40.942 162.791 40.942C164.651 40.942 165.814 39.5467 166.047 37.6862V30.7095H167.674V39.5467C167.674 40.4769 167.907 40.942 168.605 40.942C168.837 40.942 169.07 40.942 169.302 40.942V42.3374C169.07 42.3374 168.605 42.5699 168.14 42.5699C167.442 42.5699 166.977 42.3374 166.744 42.1048C166.512 41.8723 166.279 41.4071 166.279 40.942C165.581 42.1048 164.419 42.5699 162.558 42.5699C160 42.5699 158.372 40.942 158.372 38.1513V30.7095Z" fill="white"/>
<path d="M170.465 42.3373V30.7094H172.093V32.5698C172.791 31.1745 173.954 30.4768 175.582 30.4768C175.814 30.4768 176.047 30.4768 176.279 30.4768V32.3373C176.047 32.3373 175.582 32.3373 175.116 32.3373C173.256 32.3373 172.093 33.7326 172.093 35.5931V42.3373H170.465Z" fill="white"/>
<path d="M176.512 36.5232C176.512 34.8953 177.209 33.2674 178.372 32.1046C179.535 30.9418 180.93 30.2441 182.791 30.2441C184.419 30.2441 186.047 30.9418 187.209 32.1046C188.372 33.2674 189.07 34.6627 189.07 36.5232C189.07 38.1511 188.372 39.779 187.209 40.9418C186.047 42.1046 184.651 42.5697 182.791 42.5697C181.163 42.5697 179.535 41.872 178.372 40.7093C176.977 39.779 176.512 38.1511 176.512 36.5232ZM178.14 36.5232C178.14 37.9186 178.605 38.8488 179.302 39.779C180.233 40.7093 181.163 41.1744 182.558 41.1744C183.954 41.1744 184.884 40.7093 185.814 40.0116C186.744 39.0813 186.977 38.1511 186.977 36.7558C186.977 35.3604 186.512 34.4302 185.814 33.5C184.884 32.5697 183.954 32.1046 182.558 32.1046C181.163 32.1046 180.233 32.5697 179.302 33.5C178.605 34.1976 178.14 35.1279 178.14 36.5232Z" fill="white"/>
<path d="M190.698 39.3139C190.93 40.2441 192.093 41.1744 193.488 41.1744C195.349 41.1744 196.047 40.2441 196.047 39.3139C196.047 38.8488 195.814 38.3837 195.349 37.9186C194.884 37.686 194.186 37.2209 193.023 36.7558C190.93 35.8255 190 35.1279 190 33.2674C190 31.4069 191.395 30.2441 193.488 30.2441C195.116 30.2441 196.279 30.9418 196.744 32.3372L195.349 33.0348C194.884 32.3372 194.186 31.872 193.488 31.872C192.326 31.872 191.628 32.3372 191.628 33.2674C191.628 34.1976 192.326 34.6627 194.186 35.3604C196.512 36.2906 197.674 37.2209 197.674 39.0813C197.674 40.9418 196.279 42.3372 193.488 42.3372C191.395 42.3372 189.535 41.4069 189.07 39.5465L190.698 39.3139Z" fill="white"/>
<path d="M18.3722 1.17529H14.4187V10.0125C13.721 8.38459 11.8605 7.22181 9.06985 7.22181C6.74426 7.22181 4.65124 8.15204 3.02334 9.77995C1.39543 11.4079 0.697754 13.5009 0.697754 16.059C0.697754 18.6172 1.39543 20.7102 3.02334 22.3381C4.65124 23.966 6.74426 24.8962 9.06985 24.8962C11.8605 24.8962 13.721 23.966 14.8838 22.3381C15.1164 23.2683 15.5815 23.966 16.2791 24.4311C16.9768 24.8962 17.6745 24.8962 18.6047 24.8962L18.3722 1.17529ZM13.0233 19.7799C12.0931 20.7102 10.6978 21.1753 9.30241 21.1753C7.90706 21.1753 6.74427 20.7102 5.81403 19.7799C4.8838 18.8497 4.41868 17.4544 4.41868 16.059C4.41868 14.6637 4.8838 13.2683 5.81403 12.3381C6.74427 11.4079 7.90706 10.9427 9.30241 10.9427C10.6978 10.9427 12.0931 11.4079 13.0233 12.3381C13.9536 13.2683 14.4187 14.6637 14.4187 16.059C14.4187 17.4544 13.9536 18.8497 13.0233 19.7799Z" fill="white"/>
<path d="M22.7907 5.59306C24.186 5.59306 25.1162 4.66282 25.1162 3.26748C25.1162 1.87213 23.9535 0.941895 22.7907 0.941895C21.3953 0.941895 20.4651 1.87213 20.4651 3.26748C20.2325 4.66282 21.3953 5.59306 22.7907 5.59306Z" fill="white"/>
<path d="M24.8839 7.9187H20.9304V20.7094C20.9304 23.5001 22.3258 24.8955 24.8839 24.8955V7.9187Z" fill="white"/>
<path d="M44.6513 5.82548C46.0466 5.82548 46.9768 4.89525 46.9768 3.4999C46.9768 2.10455 45.8141 1.17432 44.6513 1.17432C43.2559 1.17432 42.3257 2.10455 42.3257 3.4999C42.3257 4.66269 43.2559 5.59292 44.6513 5.82548Z" fill="white"/>
<path d="M46.2792 7.9187H42.3257V20.7094C42.3257 23.5001 43.721 24.8955 46.2792 24.8955C46.2792 24.8955 46.2792 24.8955 46.5117 24.8955L46.2792 7.9187Z" fill="white"/>
<path d="M57.907 7.45361C55.5815 7.45361 53.9535 8.84896 53.0233 10.4769V8.15129H49.0698V25.128H53.0233V15.3606C53.0233 13.035 54.6512 11.4071 56.7442 11.4071C59.0698 11.4071 60.2326 12.8024 60.2326 15.128V20.7094C60.2326 23.7327 61.628 25.128 64.1861 25.128V13.9652C64.1861 10.0118 61.628 7.45361 57.907 7.45361Z" fill="white"/>
<path d="M83.7211 7.91873H79.7676V10.2443C79.0699 8.6164 77.2094 7.45361 74.4187 7.45361C72.0931 7.45361 70.0001 8.38384 68.3722 10.0117C66.7443 11.6397 66.0466 13.7327 66.0466 16.2908C66.0466 18.849 66.7443 20.942 68.3722 22.5699C70.0001 24.1978 72.0931 25.128 74.4187 25.128C77.2094 25.128 79.0699 24.1978 80.2327 22.5699C80.4652 23.5001 80.9304 24.1978 81.628 24.6629C82.0932 25.128 83.0234 25.128 83.9536 25.128L83.7211 7.91873ZM78.6048 20.0117C77.6745 20.942 76.2792 21.4071 74.8838 21.4071C73.4885 21.4071 72.3257 20.942 71.3955 20.0117C70.4652 19.0815 70.0001 17.6862 70.0001 16.2908C70.0001 14.8955 70.4652 13.5001 71.3955 12.5699C72.3257 11.6397 73.4885 11.1745 74.8838 11.1745C76.2792 11.1745 77.442 11.6397 78.6048 12.5699C79.535 13.5001 80.0001 14.8955 80.0001 16.2908C80.0001 17.6862 79.535 18.849 78.6048 20.0117Z" fill="white"/>
<path d="M41.3953 5.59302C41.3953 5.59302 40 5.59302 39.5349 5.59302C38.1395 5.59302 37.2093 6.75581 36.7442 7.68604C36.2791 8.61627 33.0232 19.0814 33.0232 19.0814C33.0232 19.0814 31.6279 15.8256 31.1628 14.8953C30.6977 13.9651 29.5349 13.2674 28.1395 13.2674C27.6744 13.2674 26.2791 13.2674 26.2791 13.2674L31.6279 24.6628H35.1163L41.3953 5.59302Z" fill="white"/>
<path d="M178.605 7.68628C176.279 7.68628 174.419 8.84907 173.488 10.477V9.77931V7.91884H169.535V21.6398C169.767 23.7328 171.163 24.8956 173.488 24.8956V15.8258C173.488 15.5933 173.488 15.3607 173.488 15.3607C173.721 12.8026 175.349 11.4072 178.14 11.4072C178.837 11.4072 179.302 11.4072 179.767 11.6398V7.68628C179.535 7.68628 179.07 7.68628 178.605 7.68628Z" fill="white"/>
<path d="M145.582 7.91861V1.40698H141.628V7.91861H139.535V11.6395H141.628V20.9419C141.628 23.7326 143.024 25.1279 145.582 25.1279C145.582 25.1279 145.582 25.1279 145.814 25.1279V19.5465C145.814 19.314 145.814 19.314 145.814 19.0814V11.6395H149.535V7.91861H145.582Z" fill="white"/>
<path d="M119.768 10.2443C119.07 8.6164 117.209 7.45361 114.419 7.45361C112.093 7.45361 110 8.38384 108.372 10.0117C106.744 11.6397 106.047 13.7327 106.047 16.2908C106.047 18.849 106.744 20.942 108.372 22.5699C110 24.1978 112.093 25.128 114.419 25.128C117.209 25.128 119.07 24.1978 120.233 22.5699C120.465 23.5001 120.93 24.1978 121.628 24.6629C122.326 25.128 123.023 25.128 123.954 25.128V7.91873H119.768V10.2443ZM118.605 20.0117C117.675 20.942 116.279 21.4071 114.884 21.4071C113.489 21.4071 112.326 20.942 111.395 20.0117C110.465 19.0815 110 17.6862 110 16.2908C110 14.8955 110.465 13.5001 111.395 12.5699C112.326 11.6397 113.489 11.1745 114.884 11.1745C116.279 11.1745 117.675 11.6397 118.605 12.5699C119.535 13.5001 120 14.8955 120 16.2908C120.233 17.6862 119.535 19.0815 118.605 20.0117Z" fill="white"/>
<path d="M193.954 8.15126V10.7094C193.256 9.08149 191.395 7.9187 188.605 7.9187C186.279 7.9187 184.186 8.84893 182.558 10.4768C180.93 12.1047 180.233 14.1978 180.233 16.7559C180.233 19.3141 180.93 21.4071 182.558 23.035C184.186 24.6629 186.279 25.5931 188.605 25.5931C191.395 25.5931 193.256 24.6629 194.419 23.035C194.651 23.9652 195.116 24.6629 195.814 25.128C196.512 25.5931 197.209 25.5931 198.14 25.5931V8.38382L193.954 8.15126ZM192.791 20.2443C191.861 21.1745 190.465 21.6396 189.07 21.6396C187.675 21.6396 186.512 21.1745 185.582 20.2443C184.651 19.3141 184.186 17.9187 184.186 16.5234C184.186 15.128 184.651 13.7327 185.582 12.8024C186.512 11.8722 187.675 11.4071 189.07 11.4071C190.465 11.4071 191.861 11.8722 192.791 12.8024C193.721 13.7327 194.186 15.128 194.186 16.5234C194.419 17.9187 193.721 19.3141 192.791 20.2443Z" fill="white"/>
<path d="M158.605 7.45361C156.047 7.45361 153.954 8.38384 152.093 10.0117C150.465 11.6397 149.535 13.9652 149.535 16.2908C149.535 18.849 150.465 20.942 152.093 22.5699C153.954 24.1978 156.047 25.128 158.605 25.128C161.163 25.128 163.256 24.1978 165.116 22.5699C166.977 20.942 167.907 18.6164 167.907 16.2908C167.907 13.7327 166.977 11.6397 165.349 10.0117C163.488 8.38384 161.395 7.45361 158.605 7.45361ZM162.326 20.2443C161.395 21.1745 160 21.6397 158.605 21.6397C157.209 21.6397 155.814 21.1745 154.884 20.0117C153.954 19.0815 153.488 17.6862 153.488 16.2908C153.488 14.8955 153.954 13.5001 154.884 12.5699C155.814 11.6397 157.209 10.942 158.605 10.942C160 10.942 161.395 11.4071 162.326 12.5699C163.256 13.5001 163.721 14.8955 163.721 16.2908C163.954 17.9187 163.488 19.0815 162.326 20.2443Z" fill="white"/>
<path d="M134.651 14.8955C133.953 14.6629 133.023 14.4304 132.558 14.1978C132.093 13.9652 131.395 13.7327 131.163 13.5001C130.698 13.2676 130.465 12.8024 130.465 12.3373C130.465 11.4071 131.163 10.942 132.558 10.942C133.953 10.942 135.116 11.4071 135.814 12.3373L138.14 10.0117C136.977 8.38384 135.116 7.45361 132.791 7.45361C131.163 7.45361 129.767 7.91873 128.605 8.84896C127.442 9.77919 126.977 10.942 126.977 12.5699C126.977 14.8955 128.372 16.2908 131.163 17.2211C131.628 17.4536 132.791 17.6862 133.256 17.9187C133.721 18.1513 134.419 18.3838 134.884 18.6164C135.349 18.849 135.814 19.3141 135.814 20.0118C135.814 20.942 134.884 21.8722 132.791 21.8722C131.628 21.8722 130.698 21.6397 130 21.1745C128.372 20.4769 127.442 20.7094 126.512 21.4071C126.279 21.6397 125.814 22.1048 125.814 22.1048C126.977 23.9652 129.302 25.3606 132.558 25.3606C137.209 25.3606 139.535 23.035 139.535 20.0118C139.07 17.4536 137.674 16.0583 134.651 14.8955Z" fill="white"/>
<path d="M86.7444 20.0115V30.7092C86.9769 30.7092 87.2095 30.7092 87.4421 30.7092H86.7444V20.0115Z" fill="white"/>
<path d="M102.093 9.77909C100.465 8.15118 98.3723 7.22095 96.0467 7.22095C93.256 7.22095 91.163 8.38374 90.6979 10.0116V7.45351H86.7444V20.0116V30.7093H87.4421C89.5351 30.4768 90.6979 29.314 90.9304 26.9884C90.9304 26.7558 90.9304 21.8721 90.9304 21.8721C91.6281 23.5 93.4886 24.6628 96.2793 24.6628C98.6049 24.6628 100.698 23.7326 102.326 22.1047C103.954 20.4768 104.884 18.3837 104.884 15.8256C104.419 13.5 103.721 11.407 102.093 9.77909ZM99.07 19.7791C98.1397 20.7093 96.9769 21.1744 95.5816 21.1744C94.1862 21.1744 93.0235 20.7093 91.8607 19.7791C90.9304 18.8489 90.4653 17.4535 90.4653 16.0582C90.4653 14.6628 90.9304 13.2675 91.8607 12.3372C92.7909 11.407 94.1862 10.9419 95.5816 10.9419C96.9769 10.9419 98.1397 11.407 99.07 12.3372C100 13.2675 100.465 14.6628 100.465 16.0582C100.465 17.4535 100 18.8489 99.07 19.7791Z" fill="white"/>
</g>
<defs>
<clipPath id="clip0">
<rect width="200" height="48.8372" fill="white" transform="translate(0 0.0117188)"/>
</clipPath>
</defs>
</svg>

<svg width="200" height="49" fill="none" xmlns="http://www.w3.org/2000/svg"><g clip-path="url(#clip0)" fill="#fff"><path d="M125.116 39.081c.233.93 1.396 1.86 2.791 1.86 1.861 0 2.558-.93 2.558-1.86 0-.465-.232-.93-.697-1.395-.466-.232-1.163-.697-2.326-1.163-2.093-.93-3.023-1.628-3.023-3.488s1.395-3.023 3.488-3.023c1.628 0 2.791.697 3.256 2.093l-1.395.697c-.466-.697-1.163-1.162-1.861-1.162-1.163 0-1.86.465-1.86 1.395 0 .93.697 1.395 2.558 2.093 2.325.93 3.488 1.86 3.488 3.72 0 1.861-1.395 3.257-4.186 3.257-2.093 0-3.953-.93-4.418-2.791l1.627-.233zm7.907-2.558c0-1.86.466-3.256 1.628-4.418 1.163-1.163 2.558-1.628 4.186-1.628 1.628 0 2.791.465 3.721 1.628.931 1.163 1.396 2.558 1.396 4.186v.697h-9.303c0 2.559 1.628 4.187 4.186 4.187 1.628 0 2.559-.466 3.489-1.628l1.163 1.162c-1.163 1.396-2.791 2.093-4.652 2.093-1.628 0-3.023-.465-4.186-1.627-1.162-1.396-1.628-2.791-1.628-4.652zm9.303-1.163c0-.93-.233-1.627-.93-2.325-.698-.698-1.628-.93-2.559-.93-1.162 0-1.86.232-2.79.93-.698.698-1.163 1.395-1.163 2.326h7.442zm3.953 8.838c1.395.93 3.023 1.628 4.651 1.628 1.163 0 2.093-.233 2.791-.93.698-.698 1.163-1.86 1.163-3.489v-.93c-.698 1.163-2.093 2.093-4.186 2.093-1.628 0-3.024-.465-4.186-1.628-1.163-1.163-1.628-2.558-1.628-4.419 0-1.628.465-3.255 1.628-4.186 1.162-1.162 2.558-1.628 4.186-1.628 2.093 0 3.488.93 4.186 2.094v-1.628h1.628v9.534c0 1.396-.233 2.791-.465 3.489-.233.93-.698 1.628-1.396 2.325-.93.698-2.325 1.163-3.953 1.163-2.093 0-3.954-.697-5.349-1.86l.93-1.628zm7.442-4.651c.93-.93 1.163-1.86 1.163-3.256 0-1.163-.465-2.326-1.163-3.256-.698-.93-1.86-1.395-3.023-1.395s-2.093.465-3.024 1.163c-.697.93-1.162 1.86-1.162 3.255 0 1.163.465 2.326 1.162 3.256.698.93 1.861 1.163 3.024 1.163 1.395.233 2.325 0 3.023-.93zm4.651-8.837H160v6.976c0 1.86 1.163 3.256 2.791 3.256 1.86 0 3.023-1.395 3.256-3.256V30.71h1.627v8.838c0 .93.233 1.395.931 1.395h.697v1.395c-.232 0-.697.233-1.162.233-.698 0-1.163-.233-1.396-.465a1.78 1.78 0 01-.465-1.163c-.698 1.163-1.86 1.628-3.721 1.628-2.558 0-4.186-1.628-4.186-4.419V30.71zm12.093 11.627V30.71h1.628v1.86c.698-1.395 1.861-2.092 3.489-2.092h.697v1.86h-1.163c-1.86 0-3.023 1.396-3.023 3.256v6.744h-1.628zm6.047-5.814c0-1.628.697-3.256 1.86-4.418 1.163-1.163 2.558-1.86 4.419-1.86 1.628 0 3.256.697 4.418 1.86 1.163 1.162 1.861 2.558 1.861 4.418 0 1.628-.698 3.256-1.861 4.419-1.162 1.163-2.558 1.628-4.418 1.628-1.628 0-3.256-.698-4.419-1.86-1.395-.931-1.86-2.559-1.86-4.187zm1.628 0c0 1.396.465 2.326 1.162 3.256.931.93 1.861 1.395 3.256 1.395 1.396 0 2.326-.465 3.256-1.162.93-.93 1.163-1.86 1.163-3.256 0-1.396-.465-2.326-1.163-3.256-.93-.93-1.86-1.395-3.256-1.395-1.395 0-2.325.465-3.256 1.395-.697.698-1.162 1.628-1.162 3.023zm12.558 2.791c.232.93 1.395 1.86 2.79 1.86 1.861 0 2.559-.93 2.559-1.86 0-.465-.233-.93-.698-1.395-.465-.233-1.163-.698-2.326-1.163-2.093-.93-3.023-1.628-3.023-3.489 0-1.86 1.395-3.023 3.488-3.023 1.628 0 2.791.698 3.256 2.093l-1.395.698c-.465-.698-1.163-1.163-1.861-1.163-1.162 0-1.86.465-1.86 1.395 0 .93.698 1.396 2.558 2.093 2.326.93 3.488 1.86 3.488 3.721 0 1.86-1.395 3.256-4.186 3.256-2.093 0-3.953-.93-4.418-2.79l1.628-.233zM18.372 1.175H14.42v8.837c-.698-1.627-2.559-2.79-5.35-2.79-2.325 0-4.418.93-6.046 2.558C1.395 11.408.698 13.5.698 16.059c0 2.558.697 4.651 2.325 6.28 1.628 1.627 3.721 2.557 6.047 2.557 2.79 0 4.651-.93 5.814-2.558.232.93.697 1.628 1.395 2.093.698.465 1.395.465 2.326.465l-.233-23.72zM13.023 19.78c-.93.93-2.325 1.395-3.72 1.395-1.396 0-2.559-.465-3.489-1.395-.93-.93-1.395-2.326-1.395-3.721s.465-2.79 1.395-3.72c.93-.931 2.093-1.396 3.488-1.396 1.396 0 2.791.465 3.721 1.395.93.93 1.396 2.326 1.396 3.721s-.465 2.79-1.396 3.72zM22.79 5.593c1.396 0 2.326-.93 2.326-2.326 0-1.395-1.163-2.325-2.325-2.325-1.396 0-2.326.93-2.326 2.325-.232 1.396.93 2.326 2.326 2.326zm2.094 2.326H20.93v12.79c0 2.791 1.396 4.186 3.954 4.186V7.92zm19.767-2.094c1.396 0 2.326-.93 2.326-2.325s-1.163-2.326-2.326-2.326c-1.395 0-2.325.93-2.325 2.326 0 1.163.93 2.093 2.325 2.325zm1.629 2.094h-3.954v12.79c0 2.791 1.395 4.186 3.953 4.186h.233L46.279 7.92zm11.627-.465c-2.325 0-3.953 1.395-4.884 3.023V8.15H49.07v16.977h3.953V15.36c0-2.326 1.628-3.954 3.721-3.954 2.326 0 3.489 1.395 3.489 3.721v5.581c0 3.024 1.395 4.419 3.953 4.419V13.965c0-3.953-2.558-6.511-6.279-6.511zm25.814.465h-3.953v2.325c-.698-1.628-2.559-2.79-5.35-2.79-2.325 0-4.418.93-6.046 2.558-1.628 1.628-2.325 3.72-2.325 6.279 0 2.558.697 4.651 2.325 6.279 1.628 1.628 3.721 2.558 6.047 2.558 2.79 0 4.65-.93 5.814-2.558.232.93.697 1.628 1.395 2.093.465.465 1.395.465 2.326.465l-.233-17.21zm-5.116 12.093c-.93.93-2.326 1.395-3.721 1.395s-2.558-.465-3.489-1.395c-.93-.93-1.395-2.326-1.395-3.721 0-1.396.465-2.79 1.395-3.721.93-.93 2.094-1.396 3.489-1.396s2.558.466 3.72 1.396c.931.93 1.396 2.325 1.396 3.72 0 1.396-.465 2.559-1.395 3.722zM41.395 5.593h-1.86c-1.395 0-2.326 1.163-2.79 2.093-.466.93-3.722 11.395-3.722 11.395s-1.395-3.255-1.86-4.186c-.465-.93-1.628-1.628-3.023-1.628h-1.86l5.348 11.396h3.488l6.28-19.07zm137.21 2.093c-2.326 0-4.186 1.163-5.117 2.791V7.919h-3.953v13.72c.232 2.094 1.628 3.257 3.953 3.257v-9.535c.233-2.558 1.861-3.954 4.652-3.954.697 0 1.162 0 1.627.233V7.686h-1.162zm-33.023.233V1.407h-3.954v6.512h-2.093v3.72h2.093v9.303c0 2.79 1.396 4.186 3.954 4.186h.232V11.64h3.721V7.918h-3.953zm-25.814 2.325c-.698-1.628-2.559-2.79-5.349-2.79-2.326 0-4.419.93-6.047 2.558-1.628 1.628-2.325 3.72-2.325 6.279 0 2.558.697 4.651 2.325 6.279 1.628 1.628 3.721 2.558 6.047 2.558 2.79 0 4.651-.93 5.814-2.558.232.93.697 1.628 1.395 2.093.698.465 1.395.465 2.326.465V7.918h-4.186v2.326zm-1.163 9.768c-.93.93-2.326 1.395-3.721 1.395s-2.558-.465-3.489-1.395c-.93-.93-1.395-2.326-1.395-3.721 0-1.396.465-2.79 1.395-3.721.931-.93 2.094-1.396 3.489-1.396s2.791.466 3.721 1.396c.93.93 1.395 2.325 1.395 3.72.233 1.396-.465 2.791-1.395 3.722zm75.349-11.861v2.558c-.698-1.628-2.559-2.79-5.349-2.79-2.326 0-4.419.93-6.047 2.558-1.628 1.628-2.325 3.72-2.325 6.279 0 2.558.697 4.651 2.325 6.279 1.628 1.628 3.721 2.558 6.047 2.558 2.79 0 4.651-.93 5.814-2.558.232.93.697 1.628 1.395 2.093.698.465 1.395.465 2.326.465V8.383l-4.186-.232zm-1.163 12.093c-.93.93-2.326 1.396-3.721 1.396s-2.558-.466-3.488-1.396c-.931-.93-1.396-2.325-1.396-3.72 0-1.396.465-2.791 1.396-3.722.93-.93 2.093-1.395 3.488-1.395s2.791.465 3.721 1.395c.93.93 1.395 2.326 1.395 3.721.233 1.396-.465 2.791-1.395 3.721zm-34.186-12.79c-2.558 0-4.651.93-6.512 2.558-1.628 1.628-2.558 3.953-2.558 6.279 0 2.558.93 4.651 2.558 6.279 1.861 1.628 3.954 2.558 6.512 2.558 2.558 0 4.651-.93 6.511-2.558 1.861-1.628 2.791-3.954 2.791-6.28 0-2.557-.93-4.65-2.558-6.278-1.861-1.628-3.954-2.558-6.744-2.558zm3.721 12.79c-.931.93-2.326 1.396-3.721 1.396-1.396 0-2.791-.466-3.721-1.628-.93-.93-1.396-2.326-1.396-3.721 0-1.396.466-2.79 1.396-3.721.93-.93 2.325-1.628 3.721-1.628 1.395 0 2.79.465 3.721 1.628.93.93 1.395 2.325 1.395 3.72.233 1.629-.233 2.791-1.395 3.954zm-27.675-5.348c-.698-.233-1.628-.466-2.093-.698-.465-.233-1.163-.465-1.395-.698-.465-.232-.698-.698-.698-1.163 0-.93.698-1.395 2.093-1.395s2.558.465 3.256 1.395l2.326-2.325c-1.163-1.628-3.024-2.558-5.349-2.558-1.628 0-3.024.465-4.186 1.395-1.163.93-1.628 2.093-1.628 3.72 0 2.326 1.395 3.722 4.186 4.652.465.233 1.628.465 2.093.698.465.232 1.163.465 1.628.697.465.233.93.698.93 1.396 0 .93-.93 1.86-3.023 1.86-1.163 0-2.093-.232-2.791-.698-1.628-.697-2.558-.465-3.488.233l-.698.698c1.163 1.86 3.488 3.256 6.744 3.256 4.651 0 6.977-2.326 6.977-5.35-.465-2.557-1.861-3.953-4.884-5.115zm-47.907 5.116v10.697h.698-.698V20.012z"/><path d="M102.093 9.78c-1.628-1.629-3.72-2.559-6.046-2.559-2.791 0-4.884 1.163-5.35 2.79V7.455h-3.953V30.71h.698c2.093-.232 3.256-1.395 3.488-3.72v-5.117c.698 1.628 2.559 2.79 5.35 2.79 2.325 0 4.418-.93 6.046-2.557 1.628-1.628 2.558-3.721 2.558-6.28-.465-2.325-1.163-4.418-2.791-6.046zm-3.023 10c-.93.93-2.093 1.394-3.488 1.394-1.396 0-2.558-.465-3.721-1.395-.93-.93-1.396-2.326-1.396-3.72 0-1.396.465-2.792 1.396-3.722.93-.93 2.325-1.395 3.72-1.395 1.396 0 2.559.465 3.489 1.395.93.93 1.395 2.326 1.395 3.721s-.465 2.79-1.395 3.721z"/></g><defs><clipPath id="clip0"><path fill="#fff" transform="translate(0 .012)" d="M0 0h200v48.837H0z"/></clipPath></defs></svg>
